X: 4
T: The Killarney Boys Of Pleasure
R: reel
M: 4/4
L: 1/8
K: Edor
E2FE E2 (3FGA|B2AF DEFA|~B3d efed|BdAF FE (3DEF|DEFE E2 (3FGA|B2AF DEFA|~B3d efed|1B2AD FE (3DEF:|2B2AD FEEA||:BeeA BeeB|dBAF DEFA|~f3e fgfe|dBAF DEFA|BeeA BeeB|dBAF DEFA|~f3e dffe|1dBAF FEE2:|2dBAF FEFD||


Tune 733	Setting 27986

